public/fonts/icons/image.svg

<?xml version="1.0" encoding="utf-8"?>

<!DOCTYPE svg PUBLIC "-//W3C//DTD SVG 1.1//EN" "http://www.w3.org/Graphics/SVG/1.1/DTD/svg11.dtd">
<svg version="1.1" xmlns="http://www.w3.org/2000/svg" xmlns:xlink="http://www.w3.org/1999/xlink" width="32" height="32" viewBox="0 0 32 32">
<g>
</g>
	<path d="M28 8h-24c-4 0-4 4-4 4v16c0 0 0 4 4 4h24c0 0 4 0 4-4v-16c0 0 0-4-4-4zM28 28h-24v-16h24v16zM18 18.082l-2.016 3.608-5.906-7.69-4.078 12h20l-8-7.918zM22.948 18.159c1.139 0 2.062-0.914 2.062-2.042s-0.924-2.042-2.062-2.042c-1.14 0-2.063 0.914-2.063 2.042s0.924 2.042 2.063 2.042z" fill="#000000"></path>
</svg>

<svg xmlns="http://www.w3.org/2000/svg" width="32" height="32" viewBox="0 0 32 32"><title>Image</title><path d="M28 8H4c-4 0-4 4-4 4v16s0 4 4 4h24s4 0 4-4V12s0-4-4-4zm0 20H4V12h24v16zm-10-9.918l-2.016 3.608L10.078 14 6 26h20l-8-7.918zm4.948.077c1.14 0 2.062-.915 2.062-2.043s-.924-2.042-2.062-2.042c-1.14 0-2.063.914-2.063 2.042s.924 2.042 2.063 2.042z"/></svg>
